radiator.svg

<svg fill="currentColor" viewBox="0 0 24 24"><path d="M7.95 3 6.53 5.19 7.95 7.4h-.01l-1.99 3.1-1.73-.9 1.42-2.21-1.42-2.2 2-3.1zm6-.11L12.53 5.1l1.42 2.2-.01.01-1.99 3.09-1.73-.9 1.42-2.2-1.42-2.2 2-3.1zm6.05 0L18.56 5.1 20 7.3v.01l-2 3.09-1.75-.9 1.42-2.2-1.42-2.2 2-3.1zM2 22v-8a2 2 0 0 1 2-2h16a2 2 0 0 1 2 2v8h-2v-2H4v2zm4-8a1 1 0 0 0-1 1v2a1 1 0 0 0 1 1 1 1 0 0 0 1-1v-2a1 1 0 0 0-1-1m4 0a1 1 0 0 0-1 1v2a1 1 0 0 0 1 1 1 1 0 0 0 1-1v-2a1 1 0 0 0-1-1m4 0a1 1 0 0 0-1 1v2a1 1 0 0 0 1 1 1 1 0 0 0 1-1v-2a1 1 0 0 0-1-1m4 0a1 1 0 0 0-1 1v2a1 1 0 0 0 1 1 1 1 0 0 0 1-1v-2a1 1 0 0 0-1-1"/></svg>

<svg  viewBox="0 0 24 24" fill="currentColor"><path  d="M7.95,3L6.53,5.19L7.95,7.4H7.94L5.95,10.5L4.22,9.6L5.64,7.39L4.22,5.19L6.22,2.09L7.95,3M13.95,2.89L12.53,5.1L13.95,7.3L13.94,7.31L11.95,10.4L10.22,9.5L11.64,7.3L10.22,5.1L12.22,2L13.95,2.89M20,2.89L18.56,5.1L20,7.3V7.31L18,10.4L16.25,9.5L17.67,7.3L16.25,5.1L18.25,2L20,2.89M2,22V14A2,2 0 0,1 4,12H20A2,2 0 0,1 22,14V22H20V20H4V22H2M6,14A1,1 0 0,0 5,15V17A1,1 0 0,0 6,18A1,1 0 0,0 7,17V15A1,1 0 0,0 6,14M10,14A1,1 0 0,0 9,15V17A1,1 0 0,0 10,18A1,1 0 0,0 11,17V15A1,1 0 0,0 10,14M14,14A1,1 0 0,0 13,15V17A1,1 0 0,0 14,18A1,1 0 0,0 15,17V15A1,1 0 0,0 14,14M18,14A1,1 0 0,0 17,15V17A1,1 0 0,0 18,18A1,1 0 0,0 19,17V15A1,1 0 0,0 18,14Z"/></svg>
